Papirus/symbolic/status/notification-new-symbolic.svg

<?xml version="1.0" encoding="UTF-8" standalone="no"?>
<svg xmlns="http://www.w3.org/2000/svg" height="16" style="enable-background:new" version="1.1" width="16">
 <title>
  Paper Symbolic Icon Theme
 </title>
 <g transform="translate(-645.00043,475)">
  <path style="opacity:1;fill:#5c616c;fill-opacity:1;" d="M 11.089846,1.7011721 C 8.8770738,0.95343187 6.3845719,1.8377362 5.1699219,3.9414062 l -2.25,3.8964844 -2.7324219,0.7324219 -0.25,0.4335937 1.7324219,0.9999998 8.6601561,5 1.732422,1 0.25,-0.433594 -0.732422,-2.732421 1.25,-2.164063 1,-1.7324218 C 14.374585,7.9984468 14.561465,6.9576995 14.462891,5.9550781 14.310956,5.9792097 14.158251,6.0039062 14,6.0039062 c -1.64501,0 -3,-1.3549899 -3,-3 0,-0.4361652 0.09915,-0.8486763 0.272585,-1.2218917 0,0 -0.180996,-0.080071 -0.182739,-0.080842 z M 4.0019531,12.503906 c 0,0.71396 0.3800169,1.374952 0.9980469,1.732422 0.61834,0.35531 1.3803369,0.354677 1.9980469,-0.002 z" transform="translate(645.00043,-475.00336)"/>
  <circle style="opacity:1;fill:#5294e2;fill-opacity:1;" cx="659" cy="-472" r="2"/>
 </g>
</svg>

<svg xmlns="http://www.w3.org/2000/svg" width="16" height="16" version="1.1">
 <path style="fill:#5c616c" d="M 11.09,1.7012 C 8.8767,0.95343 6.3842,1.8377 5.1695,3.9414 L 2.9195,7.8379 0.18707,8.5703 -0.06293,9.0039 1.6695,10.004 10.33,15.004 12.063,16.004 12.313,15.57 11.58,12.838 12.83,10.674 13.83,8.9414 C 14.375,7.9984 14.561,6.9577 14.463,5.9551 14.311,5.9792 14.158,6.0039 14,6.0039 12.355,6.0039 11,4.6489 11,3.0039 11,2.5677 11.099,2.1552 11.273,1.782 11.273,1.782 11.092,1.7019 11.09,1.7012 Z M 4.0016,12.504 C 4.0016,13.218 4.3816,13.879 4.9996,14.236 5.6179,14.592 6.3799,14.591 6.9976,14.234 Z"/>
 <circle style="fill:#5294e2" class="warning" cx="14" cy="3" r="2"/>
</svg>
